X:8
T:French Minuet,A. BC.08
M:3/4
L:1/4
Q:60
S:Benjamin Cooke MS.circa 1770, F.Kidson Coll.
R:Minuet
O:England
A:x
Z:vmp.John Bagnall
K:D
d2 f | f Te/d/ e | A2 g | g Tf/e/ f | d2 f | e a e | f/4e/4d/ TB2 | A3 |
f2 a | a Tg/f/ g | e2 g | g Tf/e/ f | d2 f | e d/c/B/A/ | d/e/f/d/g/f/ | Te3|
f2 a | a Tg/f/ g | e2 g | g f/e/ f | d2 f | e d/c/B/A/ | d/e/f/d/e/c/ | d3 |]

